X: 23175
T: Le Reel A Repondre
R: reel
M: 4/4
K: Dmajor
d2fd B2dB|(3ABA FA DAFA|d2 de fdef|gfed cABc|
ddfd BBdB|(3ABA FA DAFA|d2 de fdef|1 gece d2 (3ABc:|2 gece d2FG:|
|:ABAG FDFD|A,DFD CDEF|GAGF EDCE|AGFE F2FG|
ABAG FDFD|A,DFD CDEF|GAGF EDCE|1 AGFE D2FG:|2 AGFE D2 (3ABc||

